mono-glyphs/copilot-w2.svg

<svg xmlns="http://www.w3.org/2000/svg" width="1024" height="1024" fill="none" viewBox="0 0 1024 1024">
  <path fill="#fff" fill-rule="evenodd" d="M502.933 738.067c-19.2 7.465-39.646 11.196-61.333 11.196H280.002a181.299 181.299 0 0 1 13.064 30.927c3.377 10.664 7.201 23.637 11.467 38.921.712 1.068 1.422 3.378 2.134 6.932 4.622 17.417 9.156 31.636 13.598 42.652 4.445 11.02 9.691 20.262 15.735 27.727 6.4 7.818 14.49 13.952 24.266 18.395 9.777 4.443 23.021 6.665 39.734 6.665 17.422 0 31.287-7.109 41.6-21.328 9.244-12.441 18.487-31.279 27.734-56.517 6.044-16.349 14.579-42.833 25.6-79.444l1.599-5.863 6.4-20.263Zm263.465-395.086c-22.753.712-43.11 7.999-61.064 21.861-17.955 13.863-30.134 31.812-36.534 53.852-36.266 123.696-71.822 243.485-106.666 359.362L560 784.453c-8.887 30.571-17.778 58.119-26.666 82.645-7.468 20.615-15.467 38.744-24.001 54.384h217.6c35.556 0 68.978-23.281 100.265-69.847 27.379-40.522 53.158-99.707 77.336-177.549 16-50.829 28.532-95.261 37.6-133.293 9.067-38.035 13.6-71.982 13.6-101.84 0-31.991-6.579-55.985-19.736-71.977-13.865-15.996-38.043-23.995-72.531-23.995h-97.069Zm-183.998 0c-23.113 0-43.999 6.931-62.666 20.793-18.668 13.866-31.379 31.992-38.136 54.384l-17.065 57.586-43.735 148.755c-6.753 21.328-16.353 40.169-28.796 56.518H441.6c23.112 0 43.999-6.931 62.666-20.793 18.668-13.865 31.379-31.99 38.132-54.383l17.069-57.586L603.198 399.5c5.691-20.263 15.291-39.101 28.8-56.519H582.4ZM624 102.518c-9.244 0-17.422 1.866-24.534 5.598-7.11 3.733-12.8 8.798-17.066 15.196-9.6 13.152-18.844 32.168-27.734 57.05-6.044 16.351-14.579 42.832-25.6 79.444l-2.132 5.865-5.867 20.261c19.2-7.465 39.646-11.197 61.333-11.197h161.598c-8.531-16.351-16.889-39.633-25.064-69.847l-1.601-7.464c-4.622-17.062-9.156-31.102-13.601-42.121-4.442-11.019-9.688-20.261-15.732-27.726-6.4-7.819-14.49-13.951-24.266-18.394-9.78-4.444-23.025-6.665-39.734-6.665Zm-327.466 0c-35.912 0-69.334 23.282-100.268 69.846-27.022 40.877-52.622 100.06-76.799 177.548-16.356 52.963-28.978 97.663-37.867 134.095-8.889 36.434-13.333 69.58-13.333 99.438 0 33.769 6.577 58.295 19.733 73.578 13.867 15.996 37.867 23.994 72 23.994h97.066c22.756-.353 43.201-7.555 61.336-21.593 18.131-14.042 30.398-32.079 36.798-54.119 36.266-123.695 71.822-243.485 106.666-359.362l2.134-6.398c10.666-36.256 19.556-63.804 26.666-82.643 7.468-20.616 15.467-38.744 24.001-54.384H296.534Zm0-68.246H624c50.844 0 89.777 16.706 116.802 50.118 10.309 12.797 18.575 26.837 24.799 42.121 6.22 15.285 11.999 32.879 17.333 52.785l1.066 4.265c5.687 20.261 10.133 34.923 13.333 43.988 3.2 9.063 7.289 17.15 12.267 24.259 4.622 7.109 10.313 12.618 17.066 16.529 7.468 3.909 16.889 6.042 28.267 6.398h8.534c55.11 0 96.356 15.818 123.731 47.453 24.532 28.08 36.802 67.357 36.802 117.834 0 34.833-4.71 71.89-14.13 111.167-9.42 39.277-22.848 86.995-40.27 143.157-25.956 84.242-54.4 149.291-85.334 195.144-44.8 66.825-97.243 100.238-157.333 100.238H400c-51.2 0-90.133-16.709-116.798-50.121-10.313-12.794-18.491-26.748-24.535-41.852-6.044-15.107-11.911-32.791-17.601-53.05L240 840.438c-4.978-18.129-9.244-32.256-12.8-42.387-3.556-10.131-7.822-18.75-12.8-25.859-5.334-7.822-11.202-13.33-17.598-16.528-7.113-3.911-16.536-6.045-28.268-6.401H160c-54.755 0-96-15.992-123.733-47.984C12.088 673.555 0 634.454 0 583.978c0-33.766 4.445-69.489 13.333-107.169 8.89-37.679 21.334-83.353 37.334-137.026l3.2-10.131c25.6-82.82 54.222-148.046 85.867-195.676 45.153-66.47 97.422-99.704 156.8-99.704Z" clip-rule="evenodd"/>
</svg>

<svg width="1024" height="1024" viewBox="0 0 1024 1024" fill="none" xmlns="http://www.w3.org/2000/svg">
<g clip-path="url(#clip0_22_59)">
<mask id="mask0_22_59" style="mask-type:luminance" maskUnits="userSpaceOnUse" x="0" y="34" width="1024" height="956">
<path d="M1024 34.272H0V989.728H1024V34.272Z" fill="white"/>
</mask>
<g mask="url(#mask0_22_59)">
<path fill-rule="evenodd" clip-rule="evenodd" d="M502.933 738.067C483.733 745.532 463.287 749.263 441.6 749.263H280.002C285.333 759.218 289.69 769.526 293.066 780.19C296.443 790.854 300.267 803.827 304.533 819.111C305.245 820.179 305.955 822.489 306.667 826.043C311.289 843.46 315.823 857.679 320.265 868.695C324.71 879.715 329.956 888.958 336 896.423C342.4 904.241 350.49 910.374 360.266 914.817C370.043 919.26 383.287 921.482 400 921.482C417.422 921.482 431.287 914.373 441.6 900.154C450.844 887.713 460.087 868.875 469.334 843.637C475.378 827.288 483.913 800.805 494.934 764.194L496.533 758.33L502.933 738.067ZM766.398 342.982C743.645 343.694 723.288 350.981 705.334 364.843C687.379 378.706 675.2 396.655 668.8 418.695C632.534 542.391 596.978 662.179 562.134 778.056L560 784.453C551.113 815.024 542.222 842.572 533.334 867.098C525.866 887.713 517.867 905.842 509.333 921.482H726.933C762.489 921.482 795.911 898.201 827.198 851.635C854.577 811.113 880.356 751.929 904.534 674.087C920.534 623.258 933.066 578.825 942.134 540.793C951.201 502.758 955.734 468.812 955.734 438.954C955.734 406.963 949.155 382.969 935.998 366.977C922.133 350.981 897.955 342.982 863.467 342.982H860.267H858.666H766.398ZM582.4 342.982C559.287 342.982 538.401 349.913 519.734 363.775C501.066 377.641 488.355 395.767 481.598 418.159L464.533 475.745L420.798 624.499C414.045 645.827 404.445 664.668 392.002 681.017H441.6C464.712 681.017 485.599 674.087 504.266 660.225C522.934 646.36 535.645 628.234 542.398 605.841L559.467 548.255L603.198 399.501C608.889 379.238 618.489 360.4 631.998 342.982H582.4ZM624 102.519C614.756 102.519 606.578 104.385 599.466 108.117C592.356 111.85 586.666 116.915 582.4 123.313C572.8 136.465 563.556 155.481 554.666 180.363C548.622 196.714 540.087 223.195 529.066 259.807L526.934 265.672L521.067 285.933C540.267 278.468 560.713 274.736 582.4 274.736H743.998C735.467 258.385 727.109 235.103 718.934 204.889L717.333 197.425C712.711 180.363 708.177 166.323 703.732 155.304C699.29 144.285 694.044 135.043 688 127.578C681.6 119.759 673.51 113.627 663.734 109.184C653.954 104.74 640.709 102.519 624 102.519ZM296.534 102.519C260.622 102.519 227.2 125.801 196.266 172.365C169.244 213.242 143.644 272.425 119.467 349.913C103.111 402.876 90.4891 447.576 81.6 484.008C72.7113 520.442 68.2666 553.587 68.2666 583.445C68.2666 617.214 74.8441 641.74 87.9997 657.023C101.867 673.019 125.867 681.017 160 681.017H163.733H165.334H257.066C279.822 680.664 300.267 673.463 318.402 659.425C336.533 645.383 348.8 627.345 355.2 605.305C391.466 481.61 427.022 361.821 461.866 245.944L464 239.546C474.666 203.29 483.556 175.742 490.666 156.903C498.134 136.287 506.133 118.159 514.667 102.519H296.534ZM296.534 34.272H624C674.844 34.272 713.777 50.9784 740.802 84.3909C751.111 97.1871 759.377 111.228 765.601 126.512C771.821 141.797 777.6 159.391 782.934 179.297L784 183.562C789.687 203.823 794.133 218.485 797.333 227.55C800.533 236.613 804.622 244.7 809.6 251.809C814.222 258.918 819.913 264.427 826.666 268.338C834.134 272.247 843.555 274.38 854.933 274.736H863.467C918.577 274.736 959.823 290.554 987.198 322.189C1011.73 350.269 1024 389.546 1024 440.023C1024 474.856 1019.29 511.912 1009.87 551.189C1000.45 590.466 987.022 638.185 969.6 694.347C943.644 778.589 915.2 843.637 884.266 889.49C839.466 956.316 787.023 989.728 726.933 989.728H400C348.8 989.728 309.867 973.02 283.202 939.608C272.889 926.814 264.711 912.86 258.667 897.756C252.623 882.649 246.756 864.964 241.066 844.705L240 840.438C235.022 822.309 230.756 808.182 227.2 798.051C223.644 787.92 219.378 779.301 214.4 772.192C209.066 764.37 203.198 758.862 196.802 755.664C189.689 751.753 180.266 749.619 168.534 749.263H160C105.245 749.263 64 733.271 36.2666 701.279C12.0884 673.555 0 634.454 0 583.978C0 550.212 4.44469 514.49 13.3331 476.81C22.2225 439.131 34.6669 393.457 50.6666 339.784L53.8666 329.653C79.4666 246.833 108.089 181.607 139.734 133.977C184.887 67.5069 237.156 34.272 296.534 34.272Z" fill="white"/>
</g>
</g>
<defs>
<clipPath id="clip0_22_59">
<rect width="1024" height="955.456" fill="white" transform="translate(0 34.272)"/>
</clipPath>
</defs>
</svg>
